X: 691
P: Longways for as many as will.
M: 2/4
L: 1/8
K: D
V: 1
f | d>ef>g | d>BA>d | B>de>g | E/E/E E>g | d>ef>g | d>BA>d | B.e A>F | D/D/DD |]
e | a>ba>f | a>ba>f | (ge)(be) | (ge)(be) | a>ba>f | a>ba>f | g>ea>f | d/d/dd |]
V: 2 clef=bass middle=d
z | d'2 d2 | g2 f2 | g2 e2 | e4 | f2 d2 | g2 f2 | g2 f>a | d3 |]
z | d2 z2 | d2 z2 | g2 z2 | a2 g2 |f2 d2 | D4 | e2 ea | d3 |]
z | f2 a2 | d'2 d2 | e2 g2 | e2 g2 | f2 a2 | d'2 d2 | e2 fa | d3 |]

